src/assets/img/Security/icons/mobilebankicon.svg

<svg width="34" height="34" viewBox="0 0 34 34" fill="none" xmlns="http://www.w3.org/2000/svg">
<g id="Icon">
<path id="Subtract" fill-rule="evenodd" clip-rule="evenodd" d="M17 3.1875C9.37157 3.1875 3.1875 9.37157 3.1875 17C3.1875 24.6284 9.37157 30.8125 17 30.8125C24.6284 30.8125 30.8125 24.6284 30.8125 17C30.8125 9.37157 24.6284 3.1875 17 3.1875ZM12.75 10.625C12.1632 10.625 11.6875 11.1007 11.6875 11.6875C11.6875 12.2743 12.1632 12.75 12.75 12.75H14.875C16.2629 12.75 17.4435 13.637 17.8811 14.875H12.75C12.1632 14.875 11.6875 15.3507 11.6875 15.9375C11.6875 16.5243 12.1632 17 12.75 17H17.8811C17.4435 18.238 16.2629 19.125 14.875 19.125H12.75C12.3203 19.125 11.9328 19.3839 11.7684 19.7809C11.6039 20.1779 11.6948 20.6349 11.9987 20.9388L16.2487 25.1888C16.6636 25.6037 17.3364 25.6037 17.7513 25.1888C18.1662 24.7739 18.1662 24.1011 17.7513 23.6862L15.2985 21.2334C17.6779 21.0457 19.6163 19.2904 20.0812 17H21.25C21.8368 17 22.3125 16.5243 22.3125 15.9375C22.3125 15.3507 21.8368 14.875 21.25 14.875H20.0812C19.9219 14.0899 19.5894 13.3677 19.1254 12.75H21.25C21.8368 12.75 22.3125 12.2743 22.3125 11.6875C22.3125 11.1007 21.8368 10.625 21.25 10.625H12.75Z" fill="#CAFF33"/>
</g>
</svg>

<svg width="34" height="34" fill="none" xmlns="http://www.w3.org/2000/svg"><path fill-rule="evenodd" clip-rule="evenodd" d="M17 3.188C9.372 3.188 3.187 9.372 3.187 17c0 7.628 6.185 13.813 13.813 13.813 7.628 0 13.813-6.185 13.813-13.813 0-7.628-6.185-13.813-13.813-13.813Zm-4.25 7.437a1.063 1.063 0 0 0 0 2.125h2.125c1.388 0 2.569.887 3.006 2.125H12.75a1.063 1.063 0 0 0 0 2.125h5.131a3.189 3.189 0 0 1-3.006 2.125H12.75a1.063 1.063 0 0 0-.751 1.814l4.25 4.25a1.063 1.063 0 0 0 1.502-1.503l-2.453-2.453A5.316 5.316 0 0 0 20.082 17h1.169a1.063 1.063 0 0 0 0-2.125h-1.169a5.287 5.287 0 0 0-.956-2.125h2.125a1.063 1.063 0 0 0 0-2.125h-8.5Z" fill="#CAFF33"/></svg>
